assets/img/braze_icons/layout-alt-02.svg

<svg fill="none" height="24" viewBox="0 0 24 24" width="24" xmlns="http://www.w3.org/2000/svg"><g fill="#801ed7"><path d="m8 3.6c0-.56005 0-.84008-.10899-1.05399-.09588-.18816-.24886-.34114-.43702-.43702-.21391-.10899-.49394-.10899-1.05399-.10899h-.23854c-.52713-.00002-.98192-.00003-1.35649.03057-.39534.0323-.78856.10362-1.16694.29641-.56449.28762-1.02343.74656-1.31105 1.31105-.19279.37838-.26411.7716-.29641 1.16694-.0306.37457-.03059.82932-.03057 1.35645v11.67708c-.00002.5272-.00003.982.03057 1.3565.0323.3954.10362.7886.29641 1.167.28762.5645.74656 1.0234 1.31105 1.311.37838.1928.7716.2641 1.16694.2964.37457.0306.82933.0306 1.35647.0306h.23856c.56005 0 .84008 0 1.05399-.109.18816-.0959.34115-.2488.43702-.437.10899-.2139.10899-.4939.10899-1.054z"/><path clip-rule="evenodd" d="m10 20.4c0 .5601 0 .8401.109 1.054.0959.1882.2488.3411.437.437.2139.109.4939.109 1.054.109h6.2386c.5271 0 .9819 0 1.3564-.0306.3954-.0323.7886-.1036 1.167-.2964.5645-.2876 1.0234-.7465 1.311-1.311.1928-.3784.2641-.7716.2964-1.167.0306-.3745.0306-.8293.0306-1.3564v-11.67716c0-.52714 0-.9819-.0306-1.35647-.0323-.39534-.1036-.78856-.2964-1.16694-.2876-.56449-.7465-1.02343-1.311-1.31105-.3784-.19279-.7716-.26411-1.167-.29641-.3745-.0306-.8293-.03059-1.3564-.03057h-6.2386c-.5601 0-.8401 0-1.054.10899-.1882.09588-.3411.24886-.437.43702-.109.21391-.109.49394-.109 1.05399zm2-13.4c0-.55228.4477-1 1-1h6c.5523 0 1 .44772 1 1 0 .55229-.4477 1-1 1h-6c-.5523 0-1-.44771-1-1zm1 3c-.5523 0-1 .4477-1 1s.4477 1 1 1h6c.5523 0 1-.4477 1-1s-.4477-1-1-1zm0 4c-.5523 0-1 .4477-1 1s.4477 1 1 1h6c.5523 0 1-.4477 1-1s-.4477-1-1-1z" fill-rule="evenodd"/></g></svg>

<svg width="24" height="24" viewBox="0 0 24 24" fill="none" xmlns="http://www.w3.org/2000/svg">
<path d="M8 3.6C8 3.03995 8 2.75992 7.89101 2.54601C7.79513 2.35785 7.64215 2.20487 7.45399 2.10899C7.24008 2 6.96005 2 6.4 2H6.16146C5.63433 1.99998 5.17954 1.99997 4.80497 2.03057C4.40963 2.06287 4.01641 2.13419 3.63803 2.32698C3.07354 2.6146 2.6146 3.07354 2.32698 3.63803C2.13419 4.01641 2.06287 4.40963 2.03057 4.80497C1.99997 5.17954 1.99998 5.63429 2 6.16142V17.8385C1.99998 18.3657 1.99997 18.8205 2.03057 19.195C2.06287 19.5904 2.13419 19.9836 2.32698 20.362C2.6146 20.9265 3.07354 21.3854 3.63803 21.673C4.01641 21.8658 4.40963 21.9371 4.80497 21.9694C5.17954 22 5.6343 22 6.16144 22H6.4C6.96005 22 7.24008 22 7.45399 21.891C7.64215 21.7951 7.79514 21.6422 7.89101 21.454C8 21.2401 8 20.9601 8 20.4L8 3.6Z" fill="#801ED7"/>
<path fill-rule="evenodd" clip-rule="evenodd" d="M10 20.4C10 20.9601 10 21.2401 10.109 21.454C10.2049 21.6422 10.3578 21.7951 10.546 21.891C10.7599 22 11.0399 22 11.6 22H17.8386C18.3657 22 18.8205 22 19.195 21.9694C19.5904 21.9371 19.9836 21.8658 20.362 21.673C20.9265 21.3854 21.3854 20.9265 21.673 20.362C21.8658 19.9836 21.9371 19.5904 21.9694 19.195C22 18.8205 22 18.3657 22 17.8386V6.16144C22 5.6343 22 5.17954 21.9694 4.80497C21.9371 4.40963 21.8658 4.01641 21.673 3.63803C21.3854 3.07354 20.9265 2.6146 20.362 2.32698C19.9836 2.13419 19.5904 2.06287 19.195 2.03057C18.8205 1.99997 18.3657 1.99998 17.8386 2H11.6C11.0399 2 10.7599 2 10.546 2.10899C10.3578 2.20487 10.2049 2.35785 10.109 2.54601C10 2.75992 10 3.03995 10 3.6L10 20.4ZM12 7C12 6.44772 12.4477 6 13 6H19C19.5523 6 20 6.44772 20 7C20 7.55229 19.5523 8 19 8H13C12.4477 8 12 7.55229 12 7ZM13 10C12.4477 10 12 10.4477 12 11C12 11.5523 12.4477 12 13 12H19C19.5523 12 20 11.5523 20 11C20 10.4477 19.5523 10 19 10H13ZM13 14C12.4477 14 12 14.4477 12 15C12 15.5523 12.4477 16 13 16H19C19.5523 16 20 15.5523 20 15C20 14.4477 19.5523 14 19 14H13Z" fill="#801ED7"/>
</svg>
